src/actions/symbolic/dialog-objects.svg

<svg xmlns="http://www.w3.org/2000/svg" width="16" height="16" viewBox="0 0 16 16"><defs><style id="current-color-scheme" type="text/css">.ColorScheme-Text{color:#2e3440}</style></defs><g id="surface1"><path fill="currentColor" d="m5 7-3 3h9l3-3ZM7 12l-3 3h9l3-3ZM3 2 0 5h9l3-3Zm0 0" class="ColorScheme-Text"/></g></svg>

<svg xmlns="http://www.w3.org/2000/svg" xmlns:xlink="http://www.w3.org/1999/xlink" width="16" height="16" viewBox="0 0 16 16" version="1.1">
 <defs>
  <style id="current-color-scheme" type="text/css">
   .ColorScheme-Text { color:#2e3440; } .ColorScheme-Highlight { color:#88c0d0; } .ColorScheme-NeutralText { color:#d08770; } .ColorScheme-PositiveText { color:#a3be8c; } .ColorScheme-NegativeText { color:#bf616a; }
  </style>
 </defs>
<g id="surface1">
<path class="ColorScheme-Text" fill="currentColor" d="M 5 7 L 2 10 L 11 10 L 14 7 Z M 5 7 "/>
<path class="ColorScheme-Text" fill="currentColor" d="M 7 12 L 4 15 L 13 15 L 16 12 Z M 7 12 "/>
<path class="ColorScheme-Text" fill="currentColor" d="M 3 2 L 0 5 L 9 5 L 12 2 Z M 3 2 "/>
</g>
</svg>
